iconen/gevaarlijkestof/0.svg

<?xml version="1.0" encoding="UTF-8" standalone="no"?>
<!-- Created with Inkscape (http://www.inkscape.org/) -->

<svg
   xmlns:dc="http://purl.org/dc/elements/1.1/"
   xmlns:cc="http://creativecommons.org/ns#"
   xmlns:rdf="http://www.w3.org/1999/02/22-rdf-syntax-ns#"
   xmlns:svg="http://www.w3.org/2000/svg"
   xmlns="http://www.w3.org/2000/svg"
   xmlns:sodipodi="http://sodipodi.sourceforge.net/DTD/sodipodi-0.dtd"
   xmlns:inkscape="http://www.inkscape.org/namespaces/inkscape"
   version="1.0"
   width="125"
   height="125"
   viewBox="0 0 93.750003 93.750004"
   id="svg8"
   sodipodi:docname="0.svg"
   inkscape:version="0.92.5 (2060ec1f9f, 2020-04-08)"
   inkscape:export-filename="/media/juhele/data_2TB/_GRAFIKA/GHS hazard symbols/GHS10_unknown_substances.png"
   inkscape:export-xdpi="99.027519"
   inkscape:export-ydpi="99.027519">
  <title
     id="title821">Globally Harmonized System of Classification and Labelling of Chemicals (GHS) pictogram for hazardous substances; inofficial pictogram “Unknown”</title>
  <metadata
     id="metadata14">
    <rdf:RDF>
      <cc:Work
         rdf:about="">
        <dc:format>image/svg+xml</dc:format>
        <dc:type
           rdf:resource="http://purl.org/dc/dcmitype/StillImage" />
        <dc:title>Globally Harmonized System of Classification and Labelling of Chemicals (GHS) pictogram for hazardous substances; inofficial pictogram “Unknown”</dc:title>
        <dc:description>Official hazard symbols according to directive (EC) No 1272/2008 by the European Chemicals Bureau 
The Globally Harmonized System of Classification and Labelling of Chemicals (GHS) is an internationally agreed-upon standard managed by the United Nations that was set up to replace the assortment of hazardous material classification and labelling schemes previously used around the world.
https://en.wikipedia.org/wiki/Globally_Harmonized_System_of_Classification_and_Labelling_of_Chemicals

symbols (Public Domain)
https://commons.wikimedia.org/wiki/GHS_hazard_symbols</dc:description>
        <dc:source>Own work based on: File:GHS-pictogram-exclam.svg, Author: Xavax</dc:source>
        <dc:subject>
          <rdf:Bag>
            <rdf:li>GHS</rdf:li>
            <rdf:li>explosive</rdf:li>
            <rdf:li>flammable</rdf:li>
            <rdf:li>gas</rdf:li>
            <rdf:li>corrosive</rdf:li>
            <rdf:li>acid</rdf:li>
            <rdf:li>harmful</rdf:li>
            <rdf:li>health</rdf:li>
            <rdf:li>pollution</rdf:li>
            <rdf:li>contamination</rdf:li>
            <rdf:li>nature</rdf:li>
            <rdf:li>toxic</rdf:li>
            <rdf:li>hazard</rdf:li>
            <rdf:li>warning</rdf:li>
            <rdf:li>label</rdf:li>
            <rdf:li>chemical</rdf:li>
            <rdf:li>pictogram</rdf:li>
            <rdf:li>symbol</rdf:li>
            <rdf:li>danger</rdf:li>
          </rdf:Bag>
        </dc:subject>
        <cc:license
           rdf:resource="http://creativecommons.org/publicdomain/zero/1.0/" />
      </cc:Work>
      <cc:License
         rdf:about="http://creativecommons.org/publicdomain/zero/1.0/">
        <cc:permits
           rdf:resource="http://creativecommons.org/ns#Reproduction" />
        <cc:permits
           rdf:resource="http://creativecommons.org/ns#Distribution" />
        <cc:permits
           rdf:resource="http://creativecommons.org/ns#DerivativeWorks" />
      </cc:License>
    </rdf:RDF>
  </metadata>
  <defs
     id="defs12" />
  <sodipodi:namedview
     pagecolor="#ffffff"
     bordercolor="#666666"
     borderopacity="1"
     objecttolerance="10"
     gridtolerance="10"
     guidetolerance="10"
     inkscape:pageopacity="0"
     inkscape:pageshadow="2"
     inkscape:window-width="1920"
     inkscape:window-height="1017"
     id="namedview10"
     showgrid="false"
     units="px"
     fit-margin-top="10"
     fit-margin-left="10"
     fit-margin-bottom="10"
     fit-margin-right="10"
     inkscape:zoom="2.990248"
     inkscape:cx="-80.966639"
     inkscape:cy="44.020893"
     inkscape:window-x="-8"
     inkscape:window-y="-8"
     inkscape:window-maximized="1"
     inkscape:current-layer="svg8"
     showguides="true"
     inkscape:guide-bbox="true">
    <sodipodi:guide
       position="-83.77232,98.068794"
       orientation="1,0"
       id="guide5128"
       inkscape:locked="false" />
  </sodipodi:namedview>
  <g
     id="g3127"
     transform="matrix(0.08602375,0,0,0.08603088,21.983858,21.954308)">
    <path
       style="fill:#ffffff;stroke:none"
       id="path3115"
       d="M 32.308552,289.67149 289.33058,546.69352 546.39545,289.62864 C 460.67977,204.01067 375.13344,118.22305 289.37343,32.649481 Z"
       inkscape:connector-curvature="0" />
    <path
       style="fill:#ff0000;stroke:none"
       id="path3117"
       d="M 147.659,148.012 6,289.672 147.669,431.34 289.328,573 431.016,431.312 572.704,289.624 431.063,147.984 C 353.166,70.086 289.404,6.343 289.375,6.343 c -0.029,0 -63.799,63.753 -141.716,141.669 z M 408.622,170.425 527.821,289.624 408.574,408.871 289.328,528.108 170.139,408.862 50.949,289.606 170.139,170.417 c 65.557,-65.558 119.208,-119.19 119.237,-119.19 0.029,0 53.688,53.641 119.246,119.198 z"
       inkscape:connector-curvature="0" />
    <path
       id="path3119"
       d="m 292.625,142.4375 c -30.438,0 -75.09375,20.97225 -75.09375,57.65625 0,15.372 8.449,25.15625 20.625,25.15625 21.644,0 26.05975,-34.59375 54.46875,-34.59375 14.204,0 28.0625,11.1895 28.0625,26.5625 0,20.264 -13.5345,25.8445 -27.0625,29.6875 -13.867,3.843 -27.40625,5.95325 -27.40625,18.53125 v 34.9375 c 0,13.973 9.155,24.09375 24.375,24.09375 14.205,0 24.34375,-10.11975 24.34375,-24.09375 v -12.59375 c 34.834,-9.083 58.5,-31.7835 58.5,-70.5625 0,-46.816 -37.1845,-74.78125 -80.8125,-74.78125 z m -1.34375,201.5 c -0.49661,-10e-4 -0.9815,0.0122 -1.4375,0.0312 -7.502,0.321 -14.59025,3.50975 -20.15625,9.09375 -1.682,1.682 -2.7395,2.98475 -4.0625,4.96875 -3.071,4.62 -4.7405,9.107 -5.5625,15.125 -0.16,1.21 -0.17,6.69025 0,8.03125 0.813,6.615 3.234,12.463 7.25,17.5 0.974,1.229 2.95625,3.2815 4.15625,4.3125 3.628,3.108 8.01225,5.43525 12.40625,6.53125 2.873,0.718 4.35975,0.875 7.46875,0.875 3.063,0 4.63175,-0.16475 7.34375,-0.84375 7.39,-1.843 14.0255,-6.59475 18.4375,-13.21875 3.251,-4.895 5.124,-10.33375 5.625,-16.34375 0.132,-1.616 0.0428,-5.708 -0.15625,-7.125 -0.558,-4.11 -1.54575,-7.45725 -3.21875,-10.90625 -4.715,-9.686 -13.71125,-16.37325 -23.90625,-17.78125 -1.11225,-0.1485 -2.69767,-0.24606 -4.1875,-0.25 z"
       inkscape:connector-curvature="0" />
  </g>
</svg>

<?xml version="1.0" encoding="UTF-8"?>
<svg width="125" height="125" version="1.0" viewBox="0 0 93.75 93.75" xmlns="http://www.w3.org/2000/svg">
 <title>Globally Harmonized System of Classification and Labelling of Chemicals (GHS) pictogram for hazardous substances; inofficial pictogram “Unknown”</title>
 <g transform="matrix(.086024 0 0 .086031 21.984 21.954)">
  <path d="m32.309 289.67 257.02 257.02 257.06-257.06c-85.716-85.618-171.26-171.41-257.02-256.98z" fill="#fff"/>
  <path d="m147.66 148.01-141.66 141.66 141.67 141.67 141.66 141.66 283.38-283.38-141.64-141.64c-77.897-77.898-141.66-141.64-141.69-141.64s-63.799 63.753-141.72 141.67zm260.96 22.413 119.2 119.2-119.25 119.25-119.25 119.24-119.19-119.25-119.19-119.26 119.19-119.19c65.557-65.558 119.21-119.19 119.24-119.19s53.688 53.641 119.25 119.2z" fill="#f00"/>
  <path d="m292.62 142.44c-30.438 0-75.094 20.972-75.094 57.656 0 15.372 8.449 25.156 20.625 25.156 21.644 0 26.06-34.594 54.469-34.594 14.204 0 28.062 11.19 28.062 26.562 0 20.264-13.534 25.844-27.062 29.688-13.867 3.843-27.406 5.9532-27.406 18.531v34.938c0 13.973 9.155 24.094 24.375 24.094 14.205 0 24.344-10.12 24.344-24.094v-12.594c34.834-9.083 58.5-31.784 58.5-70.562 0-46.816-37.184-74.781-80.812-74.781zm-1.3438 201.5c-0.49661-1e-3 -0.9815 0.0122-1.4375 0.0312-7.502 0.321-14.59 3.5098-20.156 9.0938-1.682 1.682-2.7395 2.9848-4.0625 4.9688-3.071 4.62-4.7405 9.107-5.5625 15.125-0.16 1.21-0.17 6.6902 0 8.0312 0.813 6.615 3.234 12.463 7.25 17.5 0.974 1.229 2.9562 3.2815 4.1562 4.3125 3.628 3.108 8.0122 5.4352 12.406 6.5312 2.873 0.718 4.3598 0.875 7.4688 0.875 3.063 0 4.6318-0.16475 7.3438-0.84375 7.39-1.843 14.026-6.5948 18.438-13.219 3.251-4.895 5.124-10.334 5.625-16.344 0.132-1.616 0.0428-5.708-0.15625-7.125-0.558-4.11-1.5458-7.4572-3.2188-10.906-4.715-9.686-13.711-16.373-23.906-17.781-1.1122-0.1485-2.6977-0.24606-4.1875-0.25z"/>
 </g>
</svg>
